lib/svgs/wps.svg

<?xml version="1.0" encoding="UTF-8"?>
<svg width="16px" height="16px" viewBox="0 0 16 16" version="1.1" xmlns="http://www.w3.org/2000/svg" xmlns:xlink="http://www.w3.org/1999/xlink">
    <!-- Generator: sketchtool 51.3 (57544) - http://www.bohemiancoding.com/sketch -->
    <title>brand/wps</title>
    <desc>Created with sketchtool.</desc>
    <defs></defs>
    <g id="Icons" stroke="none" stroke-width="1" fill="none" fill-rule="evenodd">
        <g id="Web" transform="translate(-291.000000, -1038.000000)" fill="#000000">
            <g id="brand/wps" transform="translate(291.000000, 1038.000000)">
                <path d="M15.976574,3.45261857 C15.9140514,3.09055462 15.4768731,3.06026673 15.4768731,3.06026673 L9.76157347,3.06026673 C9.35541654,3.06026673 9.19934994,3.60359445 9.19934994,3.60359445 L5.79514724,10.605661 C5.63892073,10.9377461 5.48285413,10.605661 5.48285413,10.605661 L2.73441897,5.17300184 C2.54701113,4.90133798 2.73441897,4.78065 2.73441897,4.78065 L5.04551586,4.78065 C5.45151289,4.84107125 5.54521681,5.17300184 5.54521681,5.17300184 L6.70084521,7.55740082 L7.7002471,5.41453234 L6.79454913,3.5431732 C6.60714129,3.06026673 6.20114426,3 6.20114426,3 L0.579548582,3 C-0.294968051,3.33193059 0.0798476354,3.9959463 0.0798476354,3.9959463 L4.73322276,13.4428331 C5.26410504,14.1369821 5.63892073,13.9861608 5.63892073,13.9861608 C6.13862168,13.9861608 6.45091478,13.4428331 6.45091478,13.4428331 L10.5110449,5.11273512 C10.6672714,4.78065 10.8545194,4.78065 10.8545194,4.78065 L13.3218428,4.78065 C13.5092506,4.81078336 13.4155467,5.11273512 13.4155467,5.11273512 L10.6047489,10.6962156 C10.4798636,10.9981674 10.2611145,10.6962156 10.2611145,10.6962156 L9.35541654,8.73445636 L8.35601465,10.605661 C8.29365197,10.7566369 8.35601465,10.9377461 8.35601465,10.9377461 L9.60534697,13.4428331 C10.5735675,14.5594673 11.2605164,13.5030998 11.2605164,13.5030998 L15.8828701,4.08650092 C16.0702779,3.75457033 15.976574,3.45261857 15.976574,3.45261857 L15.976574,3.45261857 Z" id="Shape"></path>
            </g>
        </g>
    </g>
</svg>

<svg xmlns="http://www.w3.org/2000/svg" viewBox="0 0 16 16">
    <path d="M15.977 3.453c-.063-.362-.5-.393-.5-.393H9.762c-.407 0-.563.544-.563.544l-3.404 7.002c-.156.332-.312 0-.312 0L2.734 5.173c-.187-.272 0-.392 0-.392h2.312c.406.06.5.392.5.392L6.7 7.557l1-2.142-.906-1.872C6.607 3.06 6.2 3 6.2 3H.58c-.875.332-.5.996-.5.996l4.653 9.447c.531.694.906.543.906.543.5 0 .812-.543.812-.543l4.06-8.33c.156-.332.344-.332.344-.332h2.467c.187.03.094.332.094.332l-2.811 5.583c-.125.302-.344 0-.344 0l-.906-1.962-.999 1.872a.536.536 0 0 0 0 .332l1.25 2.505c.968 1.116 1.655.06 1.655.06l4.622-9.416c.187-.332.094-.634.094-.634z"/>
</svg>
